public/trashprojare.svg

<svg
   width="32"
   height="32"
   version="1.1"
   viewBox="0 0 8.4667 8.4667"
   id="svg4"
   sodipodi:docname="trashprojare.svg"
   inkscape:version="1.1 (c68e22c387, 2021-05-23)"
   xmlns:inkscape="http://www.inkscape.org/namespaces/inkscape"
   xmlns:sodipodi="http://sodipodi.sourceforge.net/DTD/sodipodi-0.dtd"
   xmlns="http://www.w3.org/2000/svg"
   xmlns:svg="http://www.w3.org/2000/svg">
  <defs
     id="defs8" />
  <sodipodi:namedview
     id="namedview6"
     pagecolor="#505050"
     bordercolor="#ffffff"
     borderopacity="1"
     inkscape:pageshadow="0"
     inkscape:pageopacity="0"
     inkscape:pagecheckerboard="1"
     showgrid="false"
     inkscape:zoom="12.109204"
     inkscape:cx="18.993817"
     inkscape:cy="15.731836"
     inkscape:window-width="1366"
     inkscape:window-height="705"
     inkscape:window-x="-8"
     inkscape:window-y="-8"
     inkscape:window-maximized="1"
     inkscape:current-layer="svg4" />
  <path
     id="path2"
     d="M 16.402344 2.4570312 C 10.672239 2.5293551 9.9849424 6.499545 9.9023438 7.3320312 L 23.529297 7.3320312 C 23.442198 6.4934951 22.721158 2.5106304 16.716797 2.4570312 C 16.610199 2.4560792 16.505632 2.4557313 16.402344 2.4570312 z M 16.685547 5.9824219 L 16.78125 5.9824219 L 16.78125 6.0703125 L 16.685547 6.0703125 L 16.685547 5.9824219 z M 15.119141 5.9863281 L 15.302734 5.9863281 C 15.343034 5.9863281 15.376337 5.9891739 15.404297 5.9960938 C 15.432266 6.0027136 15.456866 6.0148631 15.478516 6.0292969 C 15.504075 6.0464366 15.52328 6.0662373 15.537109 6.0917969 C 15.551239 6.1173565 15.558594 6.1503618 15.558594 6.1894531 C 15.558594 6.2192226 15.553499 6.2459248 15.542969 6.2714844 C 15.532749 6.296744 15.51865 6.3192469 15.5 6.3378906 C 15.47684 6.3610452 15.449538 6.3788982 15.417969 6.390625 C 15.386389 6.4020518 15.346937 6.4082031 15.298828 6.4082031 L 15.208984 6.4082031 L 15.208984 6.6582031 L 15.119141 6.6582031 L 15.119141 5.9863281 z M 15.208984 6.0625 L 15.208984 6.3320312 L 15.285156 6.3320312 C 15.321246 6.3320313 15.350497 6.3285855 15.373047 6.3222656 C 15.395597 6.3156457 15.413595 6.3051484 15.427734 6.2910156 C 15.441864 6.2765819 15.451311 6.2620315 15.457031 6.2460938 C 15.463031 6.230156 15.466797 6.2112529 15.466797 6.1914062 C 15.466797 6.1682516 15.461195 6.1480001 15.453125 6.1308594 C 15.445025 6.1137187 15.434508 6.1006696 15.417969 6.0898438 C 15.403539 6.0805239 15.385827 6.0742214 15.367188 6.0703125 C 15.348848 6.0661026 15.325135 6.0625 15.296875 6.0625 L 15.208984 6.0625 z M 16.261719 6.140625 C 16.332388 6.140625 16.387588 6.1650784 16.429688 6.2128906 C 16.471787 6.2604018 16.494141 6.3241614 16.494141 6.40625 C 16.494141 6.4883386 16.471787 6.5540533 16.429688 6.6015625 C 16.387588 6.6490737 16.332388 6.671875 16.261719 6.671875 C 16.19045 6.671875 16.133896 6.6490737 16.091797 6.6015625 C 16.049998 6.5540513 16.029297 6.4883386 16.029297 6.40625 C 16.029297 6.3241614 16.049998 6.2603998 16.091797 6.2128906 C 16.133896 6.1650784 16.19045 6.140625 16.261719 6.140625 z M 18.101562 6.140625 C 18.169521 6.140625 18.221123 6.1595254 18.257812 6.1992188 C 18.294802 6.2389121 18.314453 6.2960708 18.314453 6.3691406 L 18.314453 6.4140625 L 17.943359 6.4140625 C 17.943359 6.445035 17.947661 6.4729391 17.957031 6.4960938 C 17.966331 6.5189474 17.977901 6.5379996 17.994141 6.5527344 C 18.00978 6.5671681 18.029432 6.5787206 18.050781 6.5859375 C 18.072431 6.5931574 18.095234 6.5957031 18.121094 6.5957031 C 18.155373 6.5957031 18.19002 6.5897027 18.224609 6.5761719 C 18.259489 6.5623391 18.284088 6.548388 18.298828 6.5351562 L 18.304688 6.5351562 L 18.304688 6.6269531 C 18.276118 6.6389809 18.246566 6.6500843 18.216797 6.6582031 C 18.187027 6.666323 18.155826 6.6699219 18.123047 6.6699219 C 18.039448 6.6699219 17.974644 6.6466678 17.927734 6.6015625 C 17.880825 6.5561563 17.855469 6.4915017 17.855469 6.4082031 C 17.855469 6.3258095 17.879019 6.2612998 17.923828 6.2128906 C 17.968937 6.1644774 18.028194 6.140625 18.101562 6.140625 z M 17.115234 6.1425781 C 17.150714 6.1425781 17.180862 6.1443807 17.207031 6.1503906 C 17.233491 6.1561005 17.256141 6.1675079 17.275391 6.1816406 C 17.29433 6.1954734 17.310393 6.2124234 17.320312 6.234375 C 17.330212 6.2563266 17.333984 6.2839298 17.333984 6.3164062 L 17.333984 6.6582031 L 17.25 6.6582031 L 17.25 6.6035156 C 17.2425 6.6086255 17.23168 6.6176313 17.21875 6.6269531 C 17.20612 6.635973 17.19367 6.6430256 17.181641 6.6484375 C 17.167511 6.6553574 17.153105 6.6595516 17.134766 6.6640625 C 17.116426 6.6688724 17.093019 6.671875 17.068359 6.671875 C 17.02295 6.671875 16.984694 6.6570236 16.953125 6.6269531 C 16.921556 6.5968826 16.90625 6.558324 16.90625 6.5117188 C 16.90625 6.4735294 16.915451 6.4433765 16.931641 6.4199219 C 16.94818 6.3961663 16.971584 6.376813 17.001953 6.3632812 C 17.032623 6.3497495 17.068319 6.3407494 17.111328 6.3359375 C 17.154337 6.3311276 17.200691 6.3285818 17.25 6.3261719 L 17.25 6.3125 C 17.25 6.2932543 17.247234 6.2763017 17.240234 6.2636719 C 17.233634 6.2510421 17.223567 6.2415919 17.210938 6.234375 C 17.198908 6.2274551 17.184808 6.2231091 17.167969 6.2207031 C 17.151129 6.2182932 17.133574 6.2167969 17.115234 6.2167969 C 17.092985 6.2167969 17.068385 6.2205426 17.041016 6.2265625 C 17.013656 6.2322724 16.984248 6.2408263 16.955078 6.2519531 L 16.951172 6.2519531 L 16.951172 6.1660156 C 16.967712 6.1615057 16.992158 6.1558035 17.023438 6.1503906 C 17.054707 6.1449807 17.084855 6.1425781 17.115234 6.1425781 z M 15.669922 6.1542969 L 15.755859 6.1542969 L 15.755859 6.2285156 C 15.789539 6.2014521 15.81819 6.1830018 15.84375 6.171875 C 15.86961 6.1604482 15.895105 6.1542969 15.921875 6.1542969 C 15.936605 6.1542969 15.948468 6.15535 15.955078 6.15625 C 15.961678 6.1568514 15.971145 6.1580463 15.984375 6.1601562 L 15.984375 6.2460938 L 15.980469 6.2460938 C 15.967839 6.2430838 15.955389 6.2414344 15.943359 6.2402344 C 15.93163 6.2387344 15.91663 6.2382812 15.900391 6.2382812 C 15.874231 6.2382812 15.850531 6.2441316 15.826172 6.2558594 C 15.801812 6.2672862 15.778409 6.2824376 15.755859 6.3007812 L 15.755859 6.6582031 L 15.669922 6.6582031 L 15.669922 6.1542969 z M 16.585938 6.1542969 L 16.777344 6.1542969 L 16.777344 6.6699219 C 16.777344 6.7288599 16.762491 6.774608 16.732422 6.8046875 C 16.702352 6.834767 16.661847 6.8496094 16.611328 6.8496094 C 16.599298 6.8496094 16.58235 6.8481131 16.5625 6.8457031 C 16.54295 6.8432932 16.526902 6.8395474 16.513672 6.8359375 L 16.513672 6.7558594 L 16.517578 6.7558594 C 16.525978 6.7591693 16.538595 6.7633692 16.552734 6.7675781 C 16.567164 6.7717881 16.58021 6.7734375 16.59375 6.7734375 C 16.6154 6.7734375 16.633255 6.7696918 16.646484 6.7636719 C 16.659714 6.757662 16.669161 6.7483569 16.675781 6.7363281 C 16.682381 6.7243003 16.687653 6.7105001 16.689453 6.6933594 C 16.691553 6.6765197 16.691406 6.655217 16.691406 6.6308594 L 16.691406 6.2246094 L 16.585938 6.2246094 L 16.585938 6.1542969 z M 17.498047 6.1542969 L 17.582031 6.1542969 L 17.582031 6.2285156 C 17.615711 6.2014521 17.646315 6.1830018 17.671875 6.171875 C 17.697735 6.1604482 17.72323 6.1542969 17.75 6.1542969 C 17.76473 6.1542969 17.776593 6.15535 17.783203 6.15625 C 17.789803 6.1568514 17.79927 6.1580463 17.8125 6.1601562 L 17.8125 6.2460938 L 17.808594 6.2460938 C 17.795964 6.2430838 17.783514 6.2414344 17.771484 6.2402344 C 17.759755 6.2387344 17.744755 6.2382812 17.728516 6.2382812 C 17.702356 6.2382812 17.676703 6.2441316 17.652344 6.2558594 C 17.627984 6.2672862 17.604581 6.2824376 17.582031 6.3007812 L 17.582031 6.6582031 L 17.498047 6.6582031 L 17.498047 6.1542969 z M 18.097656 6.2109375 C 18.052247 6.2109375 18.015351 6.2232374 17.988281 6.25 C 17.961522 6.2767626 17.946969 6.309917 17.943359 6.3496094 L 18.230469 6.3496094 C 18.230168 6.3051051 18.219515 6.2704553 18.197266 6.2460938 C 18.175316 6.2217362 18.142766 6.2109375 18.097656 6.2109375 z M 16.261719 6.2128906 C 16.21571 6.2128906 16.179856 6.2298443 16.154297 6.2617188 C 16.129037 6.2932932 16.115234 6.3409981 16.115234 6.40625 C 16.115234 6.469398 16.128737 6.5180018 16.154297 6.5507812 C 16.179856 6.5832577 16.21601 6.5996094 16.261719 6.5996094 C 16.306828 6.5996094 16.341628 6.5829567 16.367188 6.5507812 C 16.393047 6.5183048 16.40625 6.4699989 16.40625 6.40625 C 16.40625 6.3409971 16.392747 6.2932882 16.367188 6.2617188 C 16.341628 6.2298443 16.307128 6.2128906 16.261719 6.2128906 z M 17.25 6.3945312 C 17.22414 6.3960312 17.193393 6.3973807 17.158203 6.4003906 C 17.123324 6.4034006 17.096622 6.4083506 17.076172 6.4140625 C 17.051812 6.4209824 17.030665 6.4305777 17.015625 6.4453125 C 17.000585 6.4597463 16.994141 6.4802988 16.994141 6.5058594 C 16.994141 6.5347269 17.002042 6.5575309 17.019531 6.5722656 C 17.036971 6.5866994 17.06382 6.59375 17.099609 6.59375 C 17.129379 6.59375 17.156981 6.5875997 17.181641 6.5761719 C 17.2063 6.5644441 17.22895 6.5494419 17.25 6.5332031 L 17.25 6.3945312 z M 9.890625 10.257812 L 9.890625 29.119141 L 23.541016 29.119141 L 23.541016 10.257812 L 9.890625 10.257812 z M 18.417969 15.558594 C 18.551855 15.550957 18.691179 15.59036 18.816406 15.681641 C 19.124659 15.906333 19.225794 16.356621 19.042969 16.691406 L 17.5 19.517578 L 19.121094 22.300781 C 19.31309 22.630393 19.223808 23.083291 18.921875 23.316406 C 18.619942 23.549521 18.221293 23.470236 18.029297 23.140625 L 16.734375 20.917969 L 15.501953 23.175781 C 15.319128 23.510567 14.923487 23.599692 14.615234 23.375 C 14.306982 23.150308 14.205847 22.70002 14.388672 22.365234 L 15.931641 19.539062 L 14.3125 16.757812 C 14.120504 16.428202 14.207832 15.975301 14.509766 15.742188 C 14.811699 15.509073 15.210348 15.586404 15.402344 15.916016 L 16.697266 18.138672 L 17.929688 15.880859 C 18.038239 15.682081 18.222288 15.569755 18.417969 15.558594 z "
     transform="scale(0.26458437)" />
</svg>

<svg width="32" height="32" version="1.1" viewBox="0 0 8.4667 8.4667" xmlns="http://www.w3.org/2000/svg">
 <path transform="scale(.26458)" d="m16.402 2.457c-5.7302 0.072325-6.4174 4.0425-6.5 4.875h13.627c-0.0871-0.83855-0.80804-4.8214-6.8125-4.875-0.1066-9.521e-4 -0.21116-0.0012997-0.31445 0zm0.2832 3.5254h0.095703v0.087891h-0.095703v-0.087891zm-1.5664 0.0039062h0.18359c0.040296 0 0.073597 0.0028493 0.10156 0.0097657 0.027966 0.0066156 0.052567 0.018769 0.074219 0.033203 0.02556 0.01714 0.044761 0.03694 0.058593 0.0625 0.014134 0.02556 0.021485 0.058564 0.021485 0.097656 0 0.02977-0.0051 0.056471-0.015625 0.082031-0.010224 0.02526-0.024325 0.047762-0.042969 0.066406-0.023155 0.023155-0.050457 0.041007-0.082031 0.052734-0.031575 0.011427-0.071027 0.017578-0.11914 0.017578h-0.089844v0.25h-0.089843v-0.67188zm0.089843 0.076172v0.26953h0.076172c0.036086 1e-7 0.065338-0.0034506 0.087891-0.0097656 0.022553-0.0066156 0.040554-0.017117 0.054687-0.03125 0.014134-0.014434 0.023584-0.028984 0.029297-0.044922 0.006014-0.015938 0.009766-0.034841 0.009766-0.054688 0-0.023155-0.005553-0.043406-0.013672-0.060547-0.008119-0.017141-0.018617-0.03019-0.035156-0.041016-0.014434-0.0093221-0.032137-0.015622-0.050781-0.019531-0.018344-0.00421-0.042046-0.0078125-0.070313-0.0078125h-0.087891zm1.0527 0.078125c0.070667 0 0.12587 0.024453 0.16797 0.072266 0.042099 0.047512 0.064453 0.11127 0.064453 0.19336s-0.022354 0.1478-0.064453 0.19531c-0.0421 0.047512-0.097302 0.070312-0.16797 0.070312-0.071269 0-0.12782-0.0228-0.16992-0.070312-0.041799-0.047512-0.0625-0.11322-0.0625-0.19531s0.020701-0.14585 0.0625-0.19336c0.042099-0.047813 0.098653-0.072266 0.16992-0.072266zm1.8398 0c0.067961 0 0.11956 0.0189 0.15625 0.058594 0.036988 0.039694 0.056641 0.096849 0.056641 0.16992v0.044922h-0.37109c0 0.030973 0.00435 0.058876 0.013672 0.082031 0.009322 0.022854 0.020871 0.041906 0.03711 0.056641 0.015637 0.014434 0.03529 0.025986 0.05664 0.033203 0.021651 0.0072171 0.044452 0.0097656 0.070313 0.0097656 0.034281 0 0.068934-0.0059992 0.10352-0.019531 0.034883-0.013833 0.059484-0.027784 0.074219-0.041016h0.00586v0.091797c-0.028568 0.012028-0.058121 0.023131-0.087891 0.03125-0.029771 0.0081192-0.060973 0.011719-0.09375 0.011719-0.083598 0-0.1484-0.023253-0.19531-0.068359-0.046911-0.045407-0.072265-0.11006-0.072265-0.19336 0-0.082395 0.023553-0.1469 0.068359-0.19531 0.045107-0.048414 0.10436-0.072266 0.17773-0.072266zm-0.98633 0.0019531c0.035484 0 0.065635 0.0017983 0.091797 0.0078125 0.026463 0.0057135 0.049114 0.017117 0.06836 0.03125 0.018944 0.013833 0.034998 0.030782 0.044921 0.052734 0.009924 0.021952 0.013672 0.049554 0.013672 0.082031v0.3418h-0.083984v-0.054688c-0.007518 0.0051121-0.018319 0.014116-0.03125 0.023438-0.01263 0.0090214-0.025081 0.016072-0.037109 0.021484-0.014134 0.0069164-0.028532 0.011114-0.046875 0.015625-0.018344 0.0048114-0.041748 0.0078125-0.066407 0.0078125-0.045407 0-0.083659-0.014851-0.11523-0.044922s-0.046875-0.068624-0.046875-0.11523c0-0.03819 0.009152-0.068342 0.025391-0.091797 0.016539-0.023756 0.03994-0.043109 0.070312-0.056641 0.030673-0.013532 0.066373-0.022532 0.10938-0.027344s0.089355-0.0073599 0.13867-0.0097656v-0.013672c0-0.019246-0.002849-0.036198-0.009766-0.048828-0.006615-0.01263-0.016667-0.02208-0.029296-0.029297-0.012029-0.0069164-0.026129-0.011266-0.042969-0.013672s-0.034391-0.0039062-0.052735-0.0039062c-0.022252 0-0.046854 0.0037514-0.074218 0.0097656-0.027365 0.0057135-0.056769 0.014264-0.085938 0.025391h-0.003906v-0.085938c0.016539-0.0045106 0.040992-0.010212 0.072266-0.015625 0.031273-0.0054128 0.061425-0.0078125 0.091796-0.0078125zm-1.4453 0.011719h0.085937v0.074219c0.03368-0.027064 0.062331-0.045514 0.087891-0.056641 0.025861-0.011427 0.051362-0.017578 0.078125-0.017578 0.014735 0 0.026587 0.001051 0.033203 0.0019531 0.006616 6.014e-4 0.016066 0.0018013 0.029297 0.0039062v0.085938h-0.003906c-0.01263-0.0030072-0.025081-0.0046566-0.03711-0.0058594-0.011727-0.0015036-0.02673-0.0019532-0.042968-0.0019532-0.026162 0-0.049862 0.0058504-0.074219 0.017578-0.024358 0.011427-0.047759 0.026578-0.070313 0.044922v0.35742h-0.085937v-0.50391zm0.91602 0h0.19141v0.51562c0 0.058939-0.014851 0.10469-0.044922 0.13477s-0.070574 0.044922-0.12109 0.044922c-0.012028 0-0.028981-0.0015006-0.048828-0.0039063-0.019546-0.0024057-0.035597-0.0061571-0.048828-0.0097656v-0.080078h0.003906c0.00842 0.0033078 0.021023 0.0075088 0.035156 0.011719 0.014435 0.00421 0.027484 0.0058594 0.041016 0.0058594 0.021651 0 0.039503-0.0037514 0.052734-0.0097656 0.013232-0.0060142 0.022682-0.015315 0.029297-0.027344 0.006616-0.012028 0.011868-0.025828 0.013672-0.042969 0.002105-0.01684 0.001953-0.038142 0.001953-0.0625v-0.40625h-0.10547v-0.070312zm0.91211 0h0.083984v0.074219c0.03368-0.027064 0.064284-0.045514 0.089844-0.056641 0.025861-0.011427 0.051362-0.017578 0.078125-0.017578 0.014735 0 0.026587 0.001051 0.033203 0.0019531 0.006616 6.014e-4 0.016066 0.0018013 0.029297 0.0039062v0.085938h-0.003906c-0.01263-0.0030072-0.025081-0.0046566-0.03711-0.0058594-0.011727-0.0015036-0.02673-0.0019532-0.042968-0.0019532-0.026162 0-0.051815 0.0058504-0.076172 0.017578-0.024358 0.011427-0.047759 0.026578-0.070313 0.044922v0.35742h-0.083984v-0.50391zm0.59961 0.056641c-0.045407 0-0.082311 0.012299-0.10938 0.039062-0.026763 0.026763-0.041313 0.059916-0.044922 0.099609h0.28711c-3.01e-4 -0.044505-0.010951-0.079158-0.033203-0.10352-0.021952-0.024358-0.054503-0.035156-0.09961-0.035156zm-1.8359 0.0019531c-0.046009 0-0.081862 0.016953-0.10742 0.048828-0.02526 0.031575-0.039063 0.079277-0.039063 0.14453 0 0.063149 0.013502 0.11175 0.039063 0.14453 0.02556 0.032477 0.061714 0.048828 0.10742 0.048828 0.045106 0 0.079908-0.016652 0.10547-0.048828 0.025861-0.032477 0.039062-0.08078 0.039062-0.14453 0-0.065254-0.013502-0.11296-0.039062-0.14453-0.025561-0.031875-0.060062-0.048828-0.10547-0.048828zm0.98828 0.18164c-0.025861 0.0015036-0.056614 0.0028523-0.091797 0.0058594-0.034882 0.0030071-0.061583 0.0079584-0.082031 0.013672-0.024358 0.0069164-0.045511 0.016515-0.060547 0.03125-0.015036 0.014434-0.021484 0.034986-0.021484 0.060547 0 0.028868 0.007949 0.051671 0.02539 0.066406 0.017441 0.014434 0.044294 0.021484 0.080078 0.021484 0.029771 0 0.057373-0.0061511 0.082032-0.017578 0.024658-0.011728 0.047309-0.02673 0.068359-0.042969v-0.13867zm-7.3594 3.8633v18.861h13.652v-18.861h-13.652zm3.9375 2.7461a1.7772 1.7772 0 0 1 1.7773 1.7773 1.7772 1.7772 0 0 1-1.7773 1.7773 1.7772 1.7772 0 0 1-1.7773-1.7773 1.7772 1.7772 0 0 1 1.7773-1.7773zm6.6875 0.97656c0.099108 0.006528 0.19145 0.038285 0.26953 0.097656 0.27764 0.2111 0.26755 0.68822-0.021484 1.0684l-7.0898 9.3262c-0.28903 0.38014-0.7458 0.51578-1.0234 0.30469-0.27764-0.2111-0.2695-0.68822 0.019531-1.0684l7.0918-9.3242c0.18065-0.23759 0.42551-0.3806 0.65234-0.40234 0.034026-0.003262 0.068527-0.004129 0.10156-0.001953zm-0.44531 7a1.7772 1.7772 0 0 1 1.7773 1.7773 1.7772 1.7772 0 0 1-1.7773 1.7773 1.7772 1.7772 0 0 1-1.7773-1.7773 1.7772 1.7772 0 0 1 1.7773-1.7773z" color="#354F52" fill="currentColor" stroke-linecap="square" stroke-linejoin="round" stroke-width=".037795"/>
</svg>
